lib/logo_updates/nrk-logo-nrk-p13-with-bg.svg

<svg width="258" height="84" viewBox="0 0 258 84" fill="none" xmlns="http://www.w3.org/2000/svg">
<rect width="258" height="84" fill="#FFA90A"/>
<path d="M20 63V21.0038H33.7802V63H20ZM52.5283 27.6877L60.4532 63H45.3721L35.9092 21.0038H44.3676C46.3072 20.9786 48.1892 21.6624 49.6607 22.9264C51.1347 24.1373 52.1473 25.8184 52.5283 27.6877ZM62.5233 63V21.0038H76.3035V63H62.5233ZM86.7116 36.9743C85.2267 36.9888 83.7656 36.6003 82.4839 35.8504C81.2193 35.1194 80.1688 34.0689 79.438 32.8041C78.6872 31.5222 78.2986 30.0607 78.3134 28.5751C78.2964 27.0986 78.6853 25.6458 79.438 24.3755C80.1766 23.1245 81.2259 22.0853 82.4839 21.3588C83.766 20.6098 85.2269 20.2213 86.7116 20.2348C88.1877 20.2189 89.6399 20.6078 90.9108 21.3588C92.1562 22.0917 93.1943 23.13 93.9271 24.3755C94.6789 25.6462 95.0677 27.0987 95.0517 28.5751C95.0655 30.0605 94.6769 31.5218 93.9271 32.8041C93.202 34.0633 92.1627 35.113 90.9108 35.8504C89.6398 36.6029 88.1866 36.9918 86.7097 36.9743H86.7116ZM97.1807 63V21.0038H110.962V63H97.1807ZM128.408 43.9538C128.447 43.9946 128.742 44.4776 129.295 45.403C129.848 46.3283 130.567 47.5114 131.454 48.952C132.341 50.392 133.277 51.9199 134.262 53.536C135.247 55.1521 136.174 56.6803 137.043 58.1202C137.908 59.5602 138.894 61.1867 140 63H124.859C123.912 61.4621 123.055 60.0721 122.286 58.83C121.517 57.5878 120.7 56.2471 119.833 54.8077C118.965 53.3698 118.107 51.9699 117.259 50.6081C116.41 49.2464 115.681 48.0536 115.071 47.0297C114.459 46.0051 114.035 45.3149 113.799 44.9594C113.214 44.0771 112.868 43.058 112.794 42.0019C112.853 40.9883 113.179 40.0084 113.74 39.1619C113.976 38.7676 114.41 38.0675 115.041 37.062C115.672 36.0564 116.411 34.8637 117.259 33.4835C118.106 32.1034 118.965 30.6936 119.833 29.2543C120.702 27.815 121.519 26.4643 122.286 25.2025C123.056 23.9419 123.914 22.5421 124.859 21.0029H140L128.289 40.1082C127.926 40.6755 127.722 41.3292 127.697 42.0019C127.736 42.7081 127.983 43.3871 128.406 43.9538H128.408Z" fill="#0A2343"/>
<path d="M184.507 26.4396C183.78 25.3183 182.846 24.3449 181.757 23.5712C180.542 22.7203 179.192 22.0804 177.765 21.6785C176.032 21.2002 174.239 20.9715 172.442 20.9994H156V62.9909H162.21V47.9095H172.915C175.331 47.9469 177.716 47.3555 179.835 46.1933C181.865 45.069 183.552 43.4134 184.714 41.4038C185.959 39.1857 186.583 36.6723 186.518 34.1292C186.523 32.755 186.364 31.3849 186.045 30.0483C185.738 28.7679 185.218 27.548 184.507 26.4396ZM179.007 39.186C178.211 40.4327 177.041 41.3954 175.665 41.936C173.994 42.5682 172.216 42.8696 170.431 42.8232H162.21V26.1459H171.259C172.987 26.0804 174.708 26.4143 176.286 27.1218C177.542 27.7285 178.569 28.7241 179.214 29.9606C179.897 31.3476 180.232 32.8802 180.189 34.4258C180.257 36.0929 179.847 37.7446 179.007 39.186Z" fill="#0A2343"/>
<path d="M199.144 22.3893C198.296 22.8427 197.468 23.2666 196.661 23.6609C195.853 24.0552 195.035 24.4494 194.205 24.8437C193.378 25.238 192.53 25.5928 191.662 25.9082C190.794 26.2236 189.868 26.5391 188.884 26.8546L190.184 31.8817C191.367 31.5268 192.441 31.1719 193.407 30.817C194.353 30.4702 195.281 30.0755 196.187 29.6342C197.075 29.2005 197.962 28.7274 198.848 28.2149L198.879 28.1971V62.9929H205.029V21.0013H201.836C200.889 21.4718 199.992 21.9345 199.144 22.3893Z" fill="#0A2343"/>
<path d="M237.261 47.2579C236.851 46.0772 236.208 44.991 235.369 44.0642C234.497 43.1272 233.44 42.3822 232.264 41.8769C230.917 41.2968 229.492 40.9182 228.035 40.7532V40.5748C229.804 40.0127 231.45 39.1196 232.885 37.9429C234.165 36.8929 235.221 35.596 235.99 34.1292C236.716 32.7215 237.091 31.1592 237.084 29.5752C237.11 28.2304 236.806 26.8997 236.197 25.7003C235.573 24.5409 234.681 23.5475 233.594 22.8032C232.331 21.9434 230.916 21.3313 229.425 20.9994C227.592 20.5836 225.716 20.3852 223.836 20.408C222.599 20.4121 221.364 20.5014 220.14 20.6751C218.872 20.8489 217.618 21.1058 216.384 21.444C215.197 21.7653 214.047 22.2113 212.954 22.7747L213.782 27.447C214.648 27.0921 215.486 26.7862 216.295 26.5293C217.104 26.2723 217.883 26.0653 218.631 25.9083C219.38 25.7519 220.109 25.6339 220.82 25.5544C221.507 25.4768 222.198 25.4373 222.89 25.4361C224.141 25.4157 225.39 25.5344 226.616 25.79C227.504 25.9689 228.348 26.321 229.1 26.826C229.712 27.2579 230.194 27.8513 230.49 28.5402C230.802 29.3199 230.953 30.1549 230.933 30.9946C230.95 32.1485 230.675 33.288 230.135 34.3075C229.585 35.3124 228.817 36.1814 227.887 36.8508C226.839 37.5998 225.668 38.1601 224.427 38.5067C222.985 38.9148 221.491 39.1139 219.992 39.0981H218.868L218.158 43.7123H220.051C221.796 43.6882 223.539 43.8368 225.255 44.1559C226.54 44.3857 227.772 44.8466 228.893 45.5162C229.809 46.0743 230.555 46.8718 231.051 47.8228C231.546 48.8448 231.789 49.9701 231.761 51.1051C231.791 52.2532 231.569 53.3939 231.11 54.4467C230.671 55.3802 229.986 56.1769 229.129 56.7523C228.105 57.4205 226.96 57.8826 225.758 58.1126C224.172 58.4305 222.556 58.5792 220.938 58.5563C220.346 58.5563 219.764 58.5374 219.193 58.498C218.622 58.4586 218.019 58.3994 217.389 58.3196C216.76 58.2397 216.097 58.1343 215.408 57.9953C214.719 57.8563 213.959 57.6907 213.131 57.4916L212.362 62.5187C213.229 62.6764 214.067 62.8244 214.876 62.9624C215.685 63.1004 216.483 63.2186 217.271 63.3172C218.06 63.4145 218.828 63.4831 219.578 63.5232C220.327 63.5633 221.056 63.5834 221.766 63.5834C223.651 63.5982 225.532 63.4295 227.384 63.0797C228.958 62.7866 230.482 62.269 231.909 61.5429C233.154 60.91 234.276 60.0587 235.221 59.0294C236.11 58.0401 236.793 56.8841 237.232 55.6286C237.701 54.2484 237.931 52.7983 237.912 51.3407C237.93 49.9526 237.71 48.5717 237.261 47.2579Z" fill="#0A2343"/>
</svg>

<svg xmlns="http://www.w3.org/2000/svg" viewBox="0 0 258 84"><path fill="#FFA90A" d="M0 0h258v84H0z"/><path fill="#0A2343" d="M20 63V21.004h13.78V63H20Zm32.528-35.312L60.453 63h-15.08l-9.464-41.996h8.459a7.965 7.965 0 0 1 5.293 1.922 8.31 8.31 0 0 1 2.867 4.762ZM62.523 63V21.004h13.78V63h-13.78Zm24.189-26.026a8.213 8.213 0 0 1-4.228-1.124 8.336 8.336 0 0 1-3.046-3.046 8.206 8.206 0 0 1-1.125-4.229 8.056 8.056 0 0 1 1.125-4.2 8.437 8.437 0 0 1 3.046-3.016 8.233 8.233 0 0 1 4.228-1.124 8.083 8.083 0 0 1 4.199 1.124 8.504 8.504 0 0 1 3.016 3.016 8.075 8.075 0 0 1 1.125 4.2 8.226 8.226 0 0 1-1.125 4.23 8.4 8.4 0 0 1-3.016 3.045 8.059 8.059 0 0 1-4.201 1.124h.002ZM97.18 63V21.004h13.781V63H97.181Zm31.227-19.046c.039.04.334.524.887 1.449.553.925 1.272 2.108 2.159 3.549a1143.28 1143.28 0 0 1 5.589 9.168A854.89 854.89 0 0 0 140 63h-15.141c-.947-1.538-1.804-2.928-2.573-4.17a388.795 388.795 0 0 1-2.453-4.022 355.984 355.984 0 0 0-2.574-4.2 210.645 210.645 0 0 1-2.188-3.578 62.13 62.13 0 0 0-1.272-2.07 6.127 6.127 0 0 1-1.005-2.958 5.745 5.745 0 0 1 .946-2.84c.236-.394.67-1.094 1.301-2.1.631-1.006 1.37-2.198 2.218-3.578.847-1.38 1.706-2.79 2.574-4.23.869-1.439 1.686-2.79 2.453-4.052.77-1.26 1.628-2.66 2.573-4.2H140l-11.711 19.106a3.773 3.773 0 0 0-.592 1.894c.039.706.286 1.385.709 1.952h.002ZM184.507 26.44a10.582 10.582 0 0 0-2.75-2.869 13.196 13.196 0 0 0-3.992-1.893 18.908 18.908 0 0 0-5.323-.679H156v41.992h6.21V47.91h10.705a13.942 13.942 0 0 0 6.92-1.717 12.8 12.8 0 0 0 4.879-4.79 14.126 14.126 0 0 0 1.804-7.274 17.31 17.31 0 0 0-.473-4.08c-.307-1.281-.827-2.501-1.538-3.61Zm-5.5 12.746a7.004 7.004 0 0 1-3.342 2.75 13.78 13.78 0 0 1-5.234.887h-8.221V26.146h9.049a11.249 11.249 0 0 1 5.027.976 6.483 6.483 0 0 1 2.928 2.839 9.51 9.51 0 0 1 .975 4.465 8.746 8.746 0 0 1-1.182 4.76ZM199.144 22.39c-.848.453-1.676.877-2.483 1.27-.808.395-1.626.79-2.456 1.184-.827.394-1.675.749-2.543 1.064a76.89 76.89 0 0 1-2.778.947l1.3 5.027a56.317 56.317 0 0 0 3.223-1.065 29.668 29.668 0 0 0 2.78-1.183 43.032 43.032 0 0 0 2.661-1.42l.031-.017v34.796h6.15V21h-3.193c-.947.47-1.844.933-2.692 1.388ZM237.261 47.258a9.307 9.307 0 0 0-1.892-3.194 9.206 9.206 0 0 0-3.105-2.187 14.943 14.943 0 0 0-4.229-1.124v-.178a14.641 14.641 0 0 0 4.85-2.632 12.35 12.35 0 0 0 3.105-3.814 9.84 9.84 0 0 0 1.094-4.554 8.208 8.208 0 0 0-.887-3.875 8.248 8.248 0 0 0-2.603-2.897A12.069 12.069 0 0 0 229.425 21a23.952 23.952 0 0 0-5.589-.591 26.942 26.942 0 0 0-3.696.267c-1.268.174-2.522.43-3.756.769a17.422 17.422 0 0 0-3.43 1.33l.828 4.673a32.9 32.9 0 0 1 2.513-.918 24.05 24.05 0 0 1 2.336-.62 23.471 23.471 0 0 1 2.189-.355 18.731 18.731 0 0 1 2.07-.118c1.251-.02 2.5.098 3.726.354a6.9 6.9 0 0 1 2.484 1.036 4.062 4.062 0 0 1 1.39 1.714c.312.78.463 1.615.443 2.455a6.863 6.863 0 0 1-.798 3.312 7.672 7.672 0 0 1-2.248 2.544 11.073 11.073 0 0 1-3.46 1.656 15.682 15.682 0 0 1-4.435.591h-1.124l-.71 4.614h1.893a26.465 26.465 0 0 1 5.204.444c1.285.23 2.517.69 3.638 1.36a5.89 5.89 0 0 1 2.158 2.307 7.126 7.126 0 0 1 .71 3.282 7.848 7.848 0 0 1-.651 3.342 5.7 5.7 0 0 1-1.981 2.305 9.401 9.401 0 0 1-3.371 1.36 22.88 22.88 0 0 1-4.82.444c-.592 0-1.174-.019-1.745-.058a31.83 31.83 0 0 1-1.804-.178 27.611 27.611 0 0 1-1.981-.325 63.116 63.116 0 0 1-2.277-.503l-.769 5.027c.867.157 1.705.305 2.514.443.809.138 1.607.257 2.395.355.789.097 1.557.166 2.307.206.749.04 1.478.06 2.188.06a29.037 29.037 0 0 0 5.618-.503 16.733 16.733 0 0 0 4.525-1.537 11.685 11.685 0 0 0 3.312-2.514 10.05 10.05 0 0 0 2.011-3.4c.469-1.38.699-2.83.68-4.288a12.138 12.138 0 0 0-.651-4.083Z"/></svg>
